X:1
T:James Gibb editions
T:Psalm 145 (Becker) - Schütz
%%score [ ( 1 2 ) ( 3 4 ) ]
L:1/8
Q:1/4=98
M:3/4
K:F
V:1 treble nm="Soprano Alto"
V:2 treble 
V:3 bass nm="Tenor Bass"
V:4 bass 
V:1
"^Cornelius Becker\n(1561-1604)""^Psalm 145, SWV 250""^Heinrich Schütz\n(1585-1672)" F2 | F4 G2 | %2
w: ~Ich|will sehr|
w: ich|will dich|
 A4 c2 | (d3 c B2 x2 | A2) G4 x2 | F4 F2 x2 | (A3 B c2) | d4 _e2 | d2 c4 | B6- | B4 :| d2 | c4 B2 | %13
w: hoch er-|hö\- * *|* hen|dich, mein|Gott, * *|Kö- nig|und Her-|re,||||
w: lo- ben|e\- * *|* wig-|lich, dein'm|Na\- * *|men ge-|ben Eh-|re.||||
 A4 G2 | (F3 GAB | c2) =B4 | c6- | c4 c2 | d4 d2 | B4 B2 | (c2 B2) A2 | G4 B2 | B4 c2 | (A3 B c2) | %24
w: ||||||lo- ben|al\- * le-|zeit, im-|mer und|e\- * *|
w: |||||||||||
 (BA) G4 | F6- | F4 |] %27
w: wig\- * li-|chen.||
w: |||
V:2
 C2 | C4 C2 | C4 F2 | (D3 E F4) | E4 F4 | C2 F6 | F4 G2 | F2 F4 | x6 | F6- | F4 :| F2 | F4 D2 | %13
w: |||||||||||Dein|Lob soll|
 F4 E2 | (D2 F4 | G2) G4 | E6- | E4 F2 | F4 F2 | G4 G2 | (_E2 D2) D2 | D4 G2 | G4 G2 | (F2 ED C2) | %24
w: wer- den|aus\- *|* ge-|breit,|* ich|will dich||||||
 D2 E4 | F6- | F4 |] %27
w: |||
V:3
 A,2 | A,4 G,2 | F,4 A,2 | (B,3 A,F,G, x2 | A,B, C2) C2 x2 | C4 A,2 x2 | (C3 B, A,2) | B,4 B,2 | %8
 B,2 (B,3 A,) | B,6- | B,4 :| B,2 | A,4 B,2 | C4 C2 | (A,2 D2 C2 | _E2) D4 | C6- | C4 A,2 | %18
 B,4 B,2 | %19
"^2. Der Herr ist groß und löblich sehr, \nes kanns niemand aussprechen; \nwie hoch sei unsers Gottes Ehr, \ndas wird kein Mensch ausrechnen, \nKindeskind preisen deine Werk, \nsie rühmen dein Gewalt uns Stärk, \nihrer wird nicht vergessen.\n\n4. Man preise deine große Güt, \ndein G'rechtigkeit Ruhm habe, \nder Herr uns allzeit wohl behüt, \ngroß ist sein Treu und Gnade, \nohn Maß ist sein Barmherzigkeit, \ngeduldig, gütig allezeit, \nsein Wahrheit hat kein Ende." G,4 G,2 | %20
 G,4 ^F,2 | %21
"^6. Die Ehre deines Königreichs \nsoll sehr gerühmet werden, \nvon deiner Macht reden zugleich \ndie Menschenkind auf Erden, \nsie rühmen all von Herzen sehr \ndeins Königreiches Pracht und Ehr, \ndie ihnen kund ist worden.\n\n7. Dein Herrschaft währet für und für,\newig dein Reich bestehet, \nallzeit steht auf der Gnaden Tür, \ndadurch man zu dir gehet. \nDein Gnad erhält uns vor dem Fall, \nauf richtest du sie allzumal, \ndie nieder sind geschlagen." G,4 D2 | %22
 D4 G,2 | (C3 B, A,2) | %24
"^8. Auf dich warten mit ganzem Fleiß\naller Augen auf Erden, \ndurch deine Güte ihnen Speis \nzu rechter Zeit muß werden. \nDu tust auf deine milde Hand, \nerfüllst, was lebt im ganzen Land, \nalles mit Wohlgefallen.\n\n9. Des Herren Wege sind gerecht ,\nheilig sind all sein Werke, \ner ist nah beim elenden G'schlecht \nund will sie kräftig stärken. \nAll die sich zu dem Herren nahn, \nmit rechtem Ernst ihn rufen an, \ndie will er nicht verlassen." F,2 C4 | %25
 C6- | C4 |] %27
V:4
 F,2 | F,4 E,2 | F,4 F,2 | (B,,3 C,D,E, x2 | F,2) C,4 x2 | F,4 F,2 x2 | F,6 | B,,4 _E,2 | %8
 B,,2 F,4 | B,,6- | B,,4 :| B,,2 | F,4 G,2 | F,4 C,2 | (D,3 E, F,2 | C,2 G,2) G,,2 | C,6- | %17
 C,4 F,2 | B,,4 B,,2 | _E,4 E,2 | (C,2 G,,2) D,2 | G,,4 G,2 | G,4 E,2 | F,6 | B,,2 C,4 | F,6- | %26
 F,4 |] %27

